!!!OTL: 433. Das treue Roeschen. / Andere Melodie.
!!!ODT: 1892
!!!ARE: Europa, Mitteleuropa, Deutschland
!!!SCT: B0433A
!!!TXL: @@DE
!!!YEM: Copyright 1995, estate of Helmut Schaffrath.
**kern	**text
*ICvox	*
*Ivox	*
*clefG2	*
*M4/4	*
*met(c)	*
*k[]	*
*C:	*
{8gL	Soll
8fJ	.
8eL	ich
8fJ	.
=1	=1
4g	euch
4cc	mein
4b	Liebchen
4dd	.
=2	=2
8cc\L	nen-
8gJ	.
4g}	-nen?
{8g	Rös-
8f	-chen
8e	heißt
8f	das
=3	=3
4g	hol-
4cc	-de
4b	Kind.
4r}	.
=4	=4
{4b	Wollt
4dd	ihr
4cc	es
4ee	noch
=5	=5
4dd	wei-
4ff	-ter
8eeL	ken-
8ddJ	.
4cc}	-nen,
=6	=6
{8.a	ei,
16a	ſo
8cc	hört
8a	mich
4g	an
4b	geſchwind!
=7	=7
4cc	.
4r}	.
==	==
!!!AGN: Liebes - Lied, Liebes - Lust, Treue
!!!GTL: Liebeslieder - Liebeslust
!!!ONB: ESAC (Essen Associative Code) Database: BOEHME
!!!AMT: simple quadruple
!!!AIN: vox
!!!EED: Helmut Schaffrath
!!!EEV: 1.0
!!Muendlich aus der Wetterau. 1892.
!!!URL-scan: https://archive.org/details/BoehmeVtLieder1895/page/n353/mode/2up
!!!ENC: Anna Maria Matuszewska
!!!EEV: 2024/09/07
*-	*-
